X:91
T:Pantalon,La. CJF.091
T:La Pantalon. CJF.091
R:Quadrille
S:C.J.Fox MS, 1829/33, Beverley,E.Yorks.
N:Title line says “From Watson’s Book” – PJH.
B:Kidson Coll.Mitchell Lib.M1805
O:England
A:East Yorkshire
Z:vmp.P J Headford 2000 & 2008
M:6/8
L:1/8
Q:3/8=120
K:C
g|”$”e3{g./}fed|c2B A2B|c2c d2d|eag dgf|\
e3 {g/}fed|c2B A2B|c2c d2g|ced c2||!
e|edc cBB|A2B (BA) e|edc cBA|GA^F G2e|\
edc cBB|A2B (BA) e|edc cBA|GA^F G2″$”||!
e|fed cBA|^GAB A2c|Bfe dcB|A3 ^Gze|\
fed cBA|^GAB Ace|Bdf fe^G|(B3 ” D.C.”A2)|]

